X: 27444
T: Molly Bán
R: reel
M: 4/4
K: Edorian
|EBBA B2 AG|(3FED AD BDAF|EBBA ~B3 c|dBA=c BEED|
EBBA B2 AG|(3FED AD BDAF|EBBA ~B3 c|dBA=c B~E3||
e2 Be (3eee fe|d~B3 d2 Bd|e Be (3eee fe|dBA=c B~E3|
e2 Be (3eee fe|dB (3BBB ~d3 e|~f3 e defe|dBA=c BEED||

